Obsidian-SemiLight/actions/22s/filename-group-length.svg

<svg viewBox="0 0 22 22" xmlns="http://www.w3.org/2000/svg"><path d="m4 3v1 13h1 2 1v1 1h5v-1h-4v-11h8v4h1v-4-1h-2v-3h-1-10zm1 1h10v2h-7v1 9h-1-2zm11.5 8a3.5 3.5 0 0 0 -3.5 3.5 3.5 3.5 0 0 0 3.5 3.5 3.5 3.5 0 0 0 3.5-3.5 3.5 3.5 0 0 0 -3.5-3.5zm0 1a2.5 2.5 0 0 1 2.5 2.5 2.5 2.5 0 0 1 -2.5 2.5 2.5 2.5 0 0 1 -2.5-2.5 2.5 2.5 0 0 1 2.5-2.5zm-.5 1v3h1 1v-1h-1v-2z" fill="#4d4d4d"/></svg>

<svg xmlns="http://www.w3.org/2000/svg" viewBox="0 0 22 22">
  <defs id="defs3051">
    <style type="text/css" id="current-color-scheme">
      .ColorScheme-Text {
        color:#4d4d4d;
      }
      </style>
  </defs>
 <path 
    style="fill:currentColor;fill-opacity:1;stroke:none" 
    d="M 4 3 L 4 4 L 4 17 L 5 17 L 7 17 L 8 17 L 8 18 L 8 19 L 13 19 L 13 18 L 9 18 L 9 7 L 17 7 L 17 11 L 18 11 L 18 7 L 18 6 L 16 6 L 16 3 L 15 3 L 5 3 L 4 3 z M 5 4 L 15 4 L 15 6 L 8 6 L 8 7 L 8 16 L 7 16 L 5 16 L 5 4 z M 16.5 12 A 3.5 3.5 0 0 0 13 15.5 A 3.5 3.5 0 0 0 16.5 19 A 3.5 3.5 0 0 0 20 15.5 A 3.5 3.5 0 0 0 16.5 12 z M 16.5 13 A 2.5 2.5 0 0 1 19 15.5 A 2.5 2.5 0 0 1 16.5 18 A 2.5 2.5 0 0 1 14 15.5 A 2.5 2.5 0 0 1 16.5 13 z M 16 14 L 16 17 L 17 17 L 18 17 L 18 16 L 17 16 L 17 14 L 16 14 z "
    class="ColorScheme-Text"
    />  
</svg>
